X: 35212
T: Rory MacLeod
R: jig
M: 6/8
K: Amajor
|:(c2 A) cee|fee faa|(c2 A) cee|fec cBB|
(c2 A) cee|fee faa|fcc ecB|cAA A2 e:|
|:cee fee|aee fee|cee fee|aee eff|
cee fee|aee fee|fcc ecB|1 cAA A2 e:|2 cAA A3||
|:Acc cdd|dcc (c2 B)|Acc cdd|dcc cBB|
Acc cdd|dcc (c2 e)|fcc ecB|1 cAA A3:|2 cAA A2 e||
|:faa aff|fee (e2 c)|cBB Bce|fee eff|
faa aff|fee (e2 c)|fec ecB|1 cAA A2 e:|2 cAA A3||

